X: 53
T: Glise de Sherbrooke
C: R-23
C: French Canadian
M: C|
Z: Transcribed to abc by Mary Lou Knack
R: reel
K: G
D2| "G"G2GA BABc| d2dc B2G2| "D7"c2cB AFA2| "G"dedc B2D2|
    "G"GFGA BABc| dedc B2G2| "D7"cdcB AGFA| "G"G2B2G2 :|
|:\
d2| "G"g2gf "C"efge| "G"d2dc B2G2| "D7"c2cB A2A2| "G"dedc B2d2|
    "C"g2gf efge| "G"dedc B2G2| "D7"cdcB AGFA| "G"G2B2G2 :|
%%text 9/1/98.  Also known as "The Big Ship".
